X:1
T:Title
%%score ( 1 2 ) { 3 | 4 }
L:1/8
Q:1/4=103
M:4/4
K:F
V:1 treble nm="Grand Piano, Soprano"
V:2 treble 
V:3 treble nm="Choir Pad, Waiting for Me (Adkins)"
V:4 bass 
V:1
 F[FG] [FA]2- [FA][FA] [FB]2 | [FB]2 A2 c4 | [Fc][Fc] [Fd]2- [Fd][Ff] [Fe]2 | [Fd]2 [Fc]6 | %4
w: By~I.~F.~Groves * * * * *||||
 F[FG] [FA]2- [FA][FA] [FB]2 | [FB]2 A2 c4 | F[FG] [FA]2- [FA][CF] [CG]2 | [CG]2 [CF]6 | %8
w: ||||
 (3FA[Ac] [Af]>[Ge] [Ge]>[Ge] [ce][Bd] | (3[Ac][GB][FA] [Fd]>[Fc] [Fc]>[Fc] [Ac][GB] | %10
w: ||
 (3[FA][EG]F [EG]2- [EG][EG] [FA]2 | [F=B]2 [Ec]6 | (3FA[Ac] [Af]>[Ge] [Ge]>[Ge] [ce][Bd] | %13
w: |||
 (3[Ac][GB][FA] [Fd]>[Fc] [Fc]>[Fc] [Ac][GB] | (3[FA][EG]F [FA]2- [FA][GB] [FA]2 | [EG]2 F6- | %16
w: |||
 F2 z2 z4 |] %17
w: |
V:2
 x8 | z2 F6 | x8 | x8 | x8 | z2 F6 | x8 | x8 | x8 | x8 | x8 | x8 | x8 | x8 | x8 | x8 | x8 |] %17
V:3
 A,B, C2- CC D2 | D2 C2[K:bass] A,4 | A,A, B,2- B,D C2 | B,2 A,6 | A,B,[K:treble] C2- CC D2 | %5
 D2 C2 A,4 | CD C2- C[K:bass]A, B,2 | B,2 A,6 | (3:2:2A,2 A,[K:treble] C>C C>C C2 | %9
 (3:2:2C2 C[K:bass] B,>A, A,>A, C2 | (3CB,B, G,2- G,/ z/[K:treble] C D2 | D2 C6 | %12
 (3:2:2A,2 A, C>C C>C C2 | (3:2:2C2 C[K:bass] B,>A, A,>A, C2 | (3CB,A,[K:treble] D2- DD C2 | %15
 B,2 A,6- | A,2 z2 z4 |] %17
V:4
 F,F, F,2- F,F, F,2 | F,2 F,6 | F,F, B,,2- B,,B,, B,,2 | B,,2 F,6 | F,F, F,2- F,F, F,2 | F,2 F,6 | %6
 A,,B,, C,2- C,C, C,2 | C,2 F,6 | (3:2:2F,2 F, C,>C, C,>C, C,2 | (3:2:2C,2 C, F,>F, F,>F, F,2 | %10
 (3:2:2F,2 G, z2 z G, G,2 | G,2 C,6 | (3:2:2F,2 F, C,>C, C,>C, C,2 | (3:2:2C,2 C, F,>F, F,>F, F,2 | %14
 (3:2:2F,2 F, B,,2- B,,B,, C,2 | C,2 [F,,F,]6- | [F,,F,]2 z2 z4 |] %17

